svg/azure-storage.svg

<?xml version="1.0" encoding="UTF-8"?>
<svg xmlns="http://www.w3.org/2000/svg" xmlns:xlink="http://www.w3.org/1999/xlink" width="32" height="32" viewBox="0 0 32 32">
<defs>
<linearGradient id="linear-pattern-0" gradientUnits="userSpaceOnUse" x1="9" y1="15.83" x2="9" y2="5.79" gradientTransform="matrix(1.777778, 0.00266842, -0.00266842, 1.777778, 0, 0)">
<stop offset="0" stop-color="rgb(70.19608%, 70.19608%, 70.19608%)" stop-opacity="1"/>
<stop offset="0.26" stop-color="rgb(75.686276%, 75.686276%, 75.686276%)" stop-opacity="1"/>
<stop offset="1" stop-color="rgb(90.196079%, 90.196079%, 90.196079%)" stop-opacity="1"/>
</linearGradient>
</defs>
<path fill-rule="nonzero" fill="url(#linear-pattern-0)" d="M 0.890625 10.292969 L 31.109375 10.292969 L 31.109375 27.148438 C 31.109375 27.707031 30.65625 28.160156 30.097656 28.160156 L 1.902344 28.160156 C 1.34375 28.160156 0.890625 27.707031 0.890625 27.148438 Z M 0.890625 10.292969 "/>
<path fill-rule="nonzero" fill="rgb(21.568628%, 76.078433%, 69.411767%)" fill-opacity="1" d="M 1.902344 3.859375 L 30.097656 3.859375 C 30.65625 3.859375 31.109375 4.3125 31.109375 4.871094 L 31.109375 10.292969 L 0.890625 10.292969 L 0.890625 4.851562 C 0.898438 4.300781 1.351562 3.859375 1.902344 3.859375 "/>
<path fill-rule="nonzero" fill="rgb(100%, 100%, 100%)" fill-opacity="1" d="M 4.996094 12.25 L 26.988281 12.25 C 27.246094 12.257812 27.453125 12.472656 27.449219 12.730469 L 27.449219 15.21875 C 27.449219 15.476562 27.246094 15.6875 26.988281 15.699219 L 4.996094 15.699219 C 4.738281 15.6875 4.535156 15.476562 4.535156 15.21875 L 4.535156 12.730469 C 4.53125 12.472656 4.738281 12.257812 4.996094 12.25 "/>
<path fill-rule="nonzero" fill="rgb(21.568628%, 76.078433%, 69.411767%)" fill-opacity="1" d="M 5.011719 17.207031 L 27.003906 17.207031 C 27.261719 17.21875 27.464844 17.429688 27.464844 17.6875 L 27.464844 20.195312 C 27.464844 20.453125 27.261719 20.664062 27.003906 20.675781 L 5.011719 20.675781 C 4.753906 20.664062 4.550781 20.453125 4.550781 20.195312 L 4.550781 17.777344 C 4.527344 17.640625 4.5625 17.496094 4.648438 17.386719 C 4.738281 17.277344 4.871094 17.210938 5.011719 17.207031 "/>
<path fill-rule="nonzero" fill="rgb(14.509805%, 50.980395%, 46.666667%)" fill-opacity="1" d="M 5.011719 22.222656 L 27.003906 22.222656 C 27.261719 22.230469 27.464844 22.445312 27.464844 22.703125 L 27.464844 25.207031 C 27.46875 25.464844 27.261719 25.679688 27.003906 25.6875 L 5.011719 25.6875 C 4.753906 25.679688 4.546875 25.464844 4.550781 25.207031 L 4.550781 22.703125 C 4.550781 22.445312 4.753906 22.230469 5.011719 22.222656 "/>
</svg>

<svg role="img" viewBox="0 0 32 32" xmlns="http://www.w3.org/2000/svg"><defs><linearGradient gradientTransform="rotate(.086)scale(1.77778)" gradientUnits="userSpaceOnUse" id="azure-storage_svg__a" x1="9" x2="9" y1="15.83" y2="5.79"><stop offset="0" stop-color="rgb(70.19608%, 70.19608%, 70.19608%)"/><stop offset=".26" stop-color="rgb(75.686276%, 75.686276%, 75.686276%)"/><stop offset="1" stop-color="rgb(90.196079%, 90.196079%, 90.196079%)"/></linearGradient></defs><path d="M.89 10.293h30.22v16.855c0 .559-.454 1.012-1.012 1.012H1.902a1.01 1.01 0 0 1-1.011-1.012Zm0 0" fill="url(#azure-storage_svg__a)"/><path d="M1.902 3.86h28.196c.558 0 1.011.453 1.011 1.011v5.422H.891V4.852a1.01 1.01 0 0 1 1.011-.993" fill="rgb(21.568628%, 76.078433%, 69.411767%)"/><path d="M4.996 12.25h21.992a.476.476 0 0 1 .461.48v2.489a.48.48 0 0 1-.46.48H4.995a.48.48 0 0 1-.46-.48V12.73a.476.476 0 0 1 .46-.48" fill="rgb(100%, 100%, 100%)"/><path d="M5.012 17.207h21.992a.48.48 0 0 1 .46.48v2.508a.48.48 0 0 1-.46.48H5.012a.48.48 0 0 1-.461-.48v-2.418a.5.5 0 0 1 .097-.39.5.5 0 0 1 .364-.18" fill="rgb(21.568628%, 76.078433%, 69.411767%)"/><path d="M5.012 22.223h21.992c.258.007.46.222.46.48v2.504a.476.476 0 0 1-.46.48H5.012a.476.476 0 0 1-.461-.48v-2.504c0-.258.203-.473.46-.48" fill="rgb(14.509805%, 50.980395%, 46.666667%)"/></svg>
